src/resources/icons/shopping-cart-icon.svg

<svg role="img" width="24px" height="24px" viewBox="0 0 24 24" version="1.1" aria-hidden="true" xmlns="http://www.w3.org/2000/svg">
    <title>shopping-cart</title>
    <g id="Symbols" stroke="none" stroke-width="1" fill="none" fill-rule="evenodd">
        <g id="components-/-navigation-/-header" transform="translate(-1217.000000, -17.000000)" fill="#434656"
           fill-rule="nonzero">
            <g id="shopping-cart" transform="translate(1216.000000, 9.000000)">
                <g id="Group" transform="translate(0.000000, 7.000000)">
                    <g id="noun_add-cart_3406367" transform="translate(1.000000, 1.000000)">
                        <circle id="Oval" cx="8.43333333" cy="20.28125" r="1.60416667"></circle>
                        <circle id="Oval" cx="17.0729167" cy="20.28125" r="1.60416667"></circle>
                        <path
                            d="M21.65625,3.36875 C21.4958333,3.1625 21.24375,3.04791667 20.96875,3.04791667 L5.82083333,3.04791667 L5.66041667,1.97083333 C5.5,0.89375 4.58333333,0.114583333 3.48333333,0.114583333 L1.00833333,0.114583333 C0.527083333,0.114583333 0.1375,0.504166667 0.1375,0.985416667 C0.1375,1.46666667 0.527083333,1.85625 1.00833333,1.85625 L3.48333333,1.85625 C3.7125,1.85625 3.89583333,2.01666667 3.91875,2.22291667 L5.9125,15.4 C6.11875,16.7291667 7.24166667,17.6916667 8.57083333,17.6916667 L18.1041667,17.6916667 C18.5854167,17.6916667 18.975,17.3020833 18.975,16.8208333 C18.975,16.3395833 18.5854167,15.95 18.1041667,15.95 L8.57083333,15.95 C8.1125,15.95 7.72291667,15.60625 7.63125,15.1479167 L7.47083333,14.1166667 L19.18125,14.1166667 C19.59375,14.1166667 19.9604167,13.81875 20.0520833,13.40625 L21.8395833,4.10208333 C21.9083333,3.82708333 21.8395833,3.575 21.65625,3.36875 Z M18.4708333,12.375 L7.21875,12.375 L6.07291667,4.8125 L19.9145833,4.8125 L18.4708333,12.375 Z"
                            id="Shape"></path>
                    </g>
                </g>
            </g>
        </g>
    </g>
</svg>

<svg width="24" height="24" aria-hidden="true" xmlns="http://www.w3.org/2000/svg"><g fill="#434656" fill-rule="nonzero"><circle cx="8.433" cy="20.281" r="1.604"/><circle cx="17.073" cy="20.281" r="1.604"/><path d="M21.656 3.369a.86.86 0 0 0-.687-.321H5.82L5.66 1.97A2.177 2.177 0 0 0 3.482.115H1.008a.87.87 0 1 0 0 1.741h2.475c.23 0 .413.16.436.367L5.912 15.4a2.686 2.686 0 0 0 2.659 2.292h9.533a.87.87 0 1 0 0-1.742H8.571c-.458 0-.848-.344-.94-.802l-.16-1.031h11.71c.413 0 .78-.298.871-.71l1.788-9.305a.778.778 0 0 0-.184-.733Zm-3.185 9.006H7.219L6.073 4.812h13.842l-1.444 7.563Z"/></g></svg>
